gilbertguide/assets/images/item_3707.svg

<?xml version="1.0" standalone="no"?><!DOCTYPE svg PUBLIC "-//W3C//DTD SVG 1.1//EN" "http://www.w3.org/Graphics/SVG/1.1/DTD/svg11.dtd"><svg xmlns="http://www.w3.org/2000/svg" version="1.1" width="427px" height="197.5px" viewBox="0 0 427 197.5"><desc>Squirrel</desc><defs/><g id="Polygon13899"><path d="m187.6 99.5c.5.3 1.5.5 2.2.5c1.1 0 1.7-.6 1.7-1.5c0-.9-.5-1.4-1.6-2.1c-1.8-1.1-2.5-2.4-2.5-3.6c0-2.1 1.4-3.8 4.1-3.8c.9 0 1.7.2 2 .4c0 0-.4 2.2-.4 2.2c-.3-.2-.9-.4-1.6-.4c-1.1 0-1.6.6-1.6 1.3c0 .8.4 1.2 1.8 2.1c1.7 1 2.3 2.3 2.3 3.7c0 2.3-1.7 3.9-4.3 3.9c-1 0-2-.3-2.4-.5c0 0 .3-2.2.3-2.2zm12.2 1.8c0 0-.05-.02 0 0c-.4.5-1 .9-1.8.9c-1.8 0-2.9-2.1-2.9-4.6c0-3.2 1.4-5.1 3.2-5.1c.6 0 1.3.3 1.7 1.1c.04.05.1.1.1.1l.1-1c0 0 2.19-.04 2.2 0c0 .8-.1 1.9-.1 3c.02-.05 0 10.1 0 10.1l-2.5 0l0-4.5zm0-5.2c0-.2 0-.4-.1-.5c-.1-.6-.5-1-.9-1c-.7 0-1.1 1.1-1.1 2.8c0 1.7.4 2.8 1.1 2.8c.4 0 .7-.2.9-.8c.1-.2.1-.5.1-.7c0 0 0-2.6 0-2.6zm11.2 3.1c0 1 0 2 0 2.9c.05-.01-2.1 0-2.1 0l-.2-1c0 0 0-.01 0 0c-.4.6-1.2 1.1-2.2 1.1c-1.8 0-2.5-1.3-2.5-3.8c-.01-.03 0-5.7 0-5.7l2.5 0c0 0 .02 5.4 0 5.4c0 1.2.3 2 1 2c.4 0 .7-.3.8-.6c.1-.2.1-.5.1-.8c.05-.02 0-6 0-6l2.6 0c0 0-.03 6.52 0 6.5zm1.8 2.9l0-9.4l2.5 0l0 9.4l-2.5 0zm2.5-11.9c0 .8-.5 1.3-1.3 1.3c-.7 0-1.3-.5-1.3-1.3c0-.9.6-1.4 1.3-1.4c.8 0 1.3.5 1.3 1.4zm1.8 5.3c0-.9-.1-1.9-.1-2.8c.01-.04 2.2 0 2.2 0l.1 1.3c0 0 .1.03.1 0c.4-1 1.2-1.5 1.8-1.5c.3 0 .5 0 .6 0c0 0 0 2.5 0 2.5c-.2 0-.3 0-.6 0c-.5 0-1.2.4-1.5 1.3c-.1.3-.1.6-.1 1c.01-.01 0 4.8 0 4.8l-2.5 0c0 0-.02-6.6 0-6.6zm5.7 0c0-.9-.1-1.9-.1-2.8c-.03-.04 2.2 0 2.2 0l.1 1.3c0 0 .06.03.1 0c.4-1 1.1-1.5 1.8-1.5c.3 0 .4 0 .6 0c0 0 0 2.5 0 2.5c-.2 0-.4 0-.6 0c-.5 0-1.2.4-1.5 1.3c-.1.3-.1.6-.1 1c-.02-.01 0 4.8 0 4.8l-2.5 0c0 0-.05-6.6 0-6.6zm7.7 2.8c0 1.4.8 2 1.9 2c.8 0 1.4-.2 1.8-.3c0 0 .4 1.8.4 1.8c-.7.2-1.7.4-2.6.4c-2.6 0-4-1.7-4-4.6c0-3.2 1.7-5.1 3.8-5.1c2 0 3.2 1.6 3.2 4.5c0 .6 0 1-.1 1.3c0 0-4.4 0-4.4 0zm2.2-1.8c0-1.2-.3-2.2-1.1-2.2c-.8 0-1.1 1.3-1.1 2.2c0 0 2.2 0 2.2 0zm3.7-7.7l2.5 0l0 13.3l-2.5 0l0-13.3z" stroke="none" fill="#000" fill-opacity="0.7"/></g></svg>

<?xml version="1.0" standalone="no"?><!DOCTYPE svg PUBLIC "-//W3C//DTD SVG 1.1//EN" "http://www.w3.org/Graphics/SVG/1.1/DTD/svg11.dtd"><svg xmlns="http://www.w3.org/2000/svg" version="1.1" width="427px" height="197.5px" viewBox="0 0 427 197.5">  <desc>Squirrel</desc>  <defs/>  <g id="Polygon13818">    <path d="M 187.6 99.5 C 188.1 99.8 189.1 100 189.8 100 C 190.9 100 191.5 99.4 191.5 98.5 C 191.5 97.6 191 97.1 189.9 96.4 C 188.1 95.3 187.4 94 187.4 92.8 C 187.4 90.7 188.8 89 191.5 89 C 192.4 89 193.2 89.2 193.5 89.4 C 193.5 89.4 193.1 91.6 193.1 91.6 C 192.8 91.4 192.2 91.2 191.5 91.2 C 190.4 91.2 189.9 91.8 189.9 92.5 C 189.9 93.3 190.3 93.7 191.7 94.6 C 193.4 95.6 194 96.9 194 98.3 C 194 100.6 192.3 102.2 189.7 102.2 C 188.7 102.2 187.7 101.9 187.3 101.7 C 187.3 101.7 187.6 99.5 187.6 99.5 Z M 199.8 101.3 C 199.8 101.3 199.75 101.28 199.8 101.3 C 199.4 101.8 198.8 102.2 198 102.2 C 196.2 102.2 195.1 100.1 195.1 97.6 C 195.1 94.4 196.5 92.5 198.3 92.5 C 198.9 92.5 199.6 92.8 200 93.6 C 200.04 93.65 200.1 93.7 200.1 93.7 L 200.2 92.7 C 200.2 92.7 202.39 92.66 202.4 92.7 C 202.4 93.5 202.3 94.6 202.3 95.7 C 202.32 95.65 202.3 105.8 202.3 105.8 L 199.8 105.8 L 199.8 101.3 Z M 199.8 96.1 C 199.8 95.9 199.8 95.7 199.7 95.6 C 199.6 95 199.2 94.6 198.8 94.6 C 198.1 94.6 197.7 95.7 197.7 97.4 C 197.7 99.1 198.1 100.2 198.8 100.2 C 199.2 100.2 199.5 100 199.7 99.4 C 199.8 99.2 199.8 98.9 199.8 98.7 C 199.8 98.7 199.8 96.1 199.8 96.1 Z M 211 99.2 C 211 100.2 211 101.2 211 102.1 C 211.05 102.09 208.9 102.1 208.9 102.1 L 208.7 101.1 C 208.7 101.1 208.7 101.09 208.7 101.1 C 208.3 101.7 207.5 102.2 206.5 102.2 C 204.7 102.2 204 100.9 204 98.4 C 203.99 98.37 204 92.7 204 92.7 L 206.5 92.7 C 206.5 92.7 206.52 98.1 206.5 98.1 C 206.5 99.3 206.8 100.1 207.5 100.1 C 207.9 100.1 208.2 99.8 208.3 99.5 C 208.4 99.3 208.4 99 208.4 98.7 C 208.45 98.68 208.4 92.7 208.4 92.7 L 211 92.7 C 211 92.7 210.97 99.22 211 99.2 Z M 212.8 102.1 L 212.8 92.7 L 215.3 92.7 L 215.3 102.1 L 212.8 102.1 Z M 215.3 90.2 C 215.3 91 214.8 91.5 214 91.5 C 213.3 91.5 212.7 91 212.7 90.2 C 212.7 89.3 213.3 88.8 214 88.8 C 214.8 88.8 215.3 89.3 215.3 90.2 Z M 217.1 95.5 C 217.1 94.6 217 93.6 217 92.7 C 217.01 92.66 219.2 92.7 219.2 92.7 L 219.3 94 C 219.3 94 219.4 94.03 219.4 94 C 219.8 93 220.6 92.5 221.2 92.5 C 221.5 92.5 221.7 92.5 221.8 92.5 C 221.8 92.5 221.8 95 221.8 95 C 221.6 95 221.5 95 221.2 95 C 220.7 95 220 95.4 219.7 96.3 C 219.6 96.6 219.6 96.9 219.6 97.3 C 219.61 97.29 219.6 102.1 219.6 102.1 L 217.1 102.1 C 217.1 102.1 217.08 95.5 217.1 95.5 Z M 222.8 95.5 C 222.8 94.6 222.7 93.6 222.7 92.7 C 222.67 92.66 224.9 92.7 224.9 92.7 L 225 94 C 225 94 225.06 94.03 225.1 94 C 225.5 93 226.2 92.5 226.9 92.5 C 227.2 92.5 227.3 92.5 227.5 92.5 C 227.5 92.5 227.5 95 227.5 95 C 227.3 95 227.1 95 226.9 95 C 226.4 95 225.7 95.4 225.4 96.3 C 225.3 96.6 225.3 96.9 225.3 97.3 C 225.28 97.29 225.3 102.1 225.3 102.1 L 222.8 102.1 C 222.8 102.1 222.75 95.5 222.8 95.5 Z M 230.5 98.3 C 230.5 99.7 231.3 100.3 232.4 100.3 C 233.2 100.3 233.8 100.1 234.2 100 C 234.2 100 234.6 101.8 234.6 101.8 C 233.9 102 232.9 102.2 232 102.2 C 229.4 102.2 228 100.5 228 97.6 C 228 94.4 229.7 92.5 231.8 92.5 C 233.8 92.5 235 94.1 235 97 C 235 97.6 235 98 234.9 98.3 C 234.9 98.3 230.5 98.3 230.5 98.3 Z M 232.7 96.5 C 232.7 95.3 232.4 94.3 231.6 94.3 C 230.8 94.3 230.5 95.6 230.5 96.5 C 230.5 96.5 232.7 96.5 232.7 96.5 Z M 236.4 88.8 L 238.9 88.8 L 238.9 102.1 L 236.4 102.1 L 236.4 88.8 Z " stroke="none" fill="#000" fill-opacity="0.7"/>  </g></svg>
